app/images/nav_icons/search_item.svg

<svg width="20" height="21" viewBox="0 0 20 21" fill="none" xmlns="http://www.w3.org/2000/svg">
<path fill-rule="evenodd" clip-rule="evenodd" d="M14.8618 13.209L19.4504 17.7981C20.1829 18.5305 20.1829 19.7185 19.4504 20.4482C18.7193 21.181 17.5315 21.181 16.7991 20.4482L12.2106 15.8601C13.2737 15.1777 14.1783 14.2725 14.8618 13.209ZM7.49982 0.997681C11.6417 0.997681 14.9998 4.35732 14.9998 8.49868C14.9998 12.6404 11.6417 15.9987 7.49982 15.9987C3.3581 15.9987 -6.10352e-05 12.6404 -6.10352e-05 8.49868C-6.10352e-05 4.35732 3.3581 0.997681 7.49982 0.997681ZM1.87494 8.49868C1.87494 11.6008 4.39814 14.1234 7.49982 14.1234C10.6016 14.1234 13.1248 11.6008 13.1248 8.49868C13.1248 5.39658 10.6016 2.8726 7.49982 2.8726C4.39814 2.8726 1.87494 5.39658 1.87494 8.49868ZM4.3749 8.49868H3.12486C3.12486 6.0868 5.08776 4.12332 7.49982 4.12332V5.37402C5.77692 5.37402 4.3749 6.77572 4.3749 8.49868Z" fill="#A3BBC8"/>
</svg>

<svg width="20" height="21" fill="none" xmlns="http://www.w3.org/2000/svg"><path fill-rule="evenodd" clip-rule="evenodd" d="M14.862 13.209l4.588 4.59a1.874 1.874 0 11-2.651 2.65l-4.588-4.589a8.812 8.812 0 002.65-2.651zM7.5.998a7.501 7.501 0 010 15 7.5 7.5 0 010-15zm-5.625 7.5A5.63 5.63 0 007.5 14.124 5.63 5.63 0 0013.125 8.5 5.632 5.632 0 007.5 2.873a5.632 5.632 0 00-5.625 5.626zm2.5 0h-1.25A4.38 4.38 0 017.5 4.124v1.251A3.128 3.128 0 004.375 8.5z" fill="#A3BBC8"/></svg>
